X: 21893
T: SCOTCH HORNPIPE
R: hornpipe, reel
B: K\"ohler's Violin Repository, v.2, 1885 p.189 #3
F: http://www.archive.org/details/klersviolinrepos02rugg
Z: 2012 John Chambers <jc:trillian.mit.edu>
M: C|
L: 1/8
K: D
((3vA,B,C) |\
D2{E}DC (DA,)B,C | ((3DFA) F2 (dF)(AF) | {c}BAFA {c}BAFD | DFEF (3fed (3cBA |\
C2{E}DC D2FE | DFAF BB,B,B, | {c}BGAB cdeg | fage d2 :|
|: (ude) |\
fBBB fgfe | defd B2 ((3cBA) | BdAd BdAF | (EF)ED (B,A,)A,A, |\
D2{E}CA, D2FE | DFAF BFGA | Bdce dfeg | gafc d2 :|

%%sep 2 1 500

